X:1
T:Midnight on the Water
T:Midnight on the Water
T:Luke Thomasson
C:Luke Thomasson
L:1/8
M:3/4
K:D
V:1 treble 
V:1
 z4 DE |: D [D,F]2 F2 F2 | [D,F]2 F2 F2 | ([D,F] A4) B | [D,A]3 FDE([D,F] A4) B | [D,A]2 FEDE | %6
 A [D,F]2 AFEF |1 D [D,D]4 DE :|2 D [D,D]3 ABc |] D d3 cde | d3 ABc | d3 BAF | D4 d2 | E e4 ef | %14
 e2 d2 e2 | D f3 gfe | d2 BABc | G d4 de | d2 BABc | D d3 BAF | D3 FED | ([D,F] A4) B | %22
 [D,A]2 FEDE | A [D,F]2 AFEF | D [D,D]6 |] %25

